client/assets/images/CommentIcon.svg

<svg xmlns="http://www.w3.org/2000/svg" width="70" height="70"><path fill="#4DCB44" d="M48 27c0 8.28-8.73 15-19.5 15-3.6 0-6.98-.75-9.87-2.06C17.24 39.31 7.85 42.15 9 41c1-1 3.95-4.88 3.19-5.78C10.17 32.86 9 30.04 9 27c0-8.28 8.73-15 19.5-15S48 18.72 48 27zm0 0"/><path fill="#4DCB44" d="M63 39c0 3.04-1.17 5.86-3.19 8.22C59.05 48.12 62 52 63 53c1.15 1.15-8.24-1.69-9.63-1.06C50.48 53.25 47.1 54 43.5 54c-8.07 0-15-3.78-17.96-9.16.97.11 1.96.16 2.97.16C40.93 45 51 36.94 51 27c0-.64-.04-1.27-.12-1.89C57.99 27.35 63 32.72 63 39zm0 0"/></svg>

<?xml version="1.0" encoding="UTF-8"?>
<!DOCTYPE svg PUBLIC "-//W3C//DTD SVG 1.1//EN" "http://www.w3.org/Graphics/SVG/1.1/DTD/svg11.dtd">
<svg version="1.1" xmlns="http://www.w3.org/2000/svg" xmlns:xlink="http://www.w3.org/1999/xlink" width="70" height="70"  xml:space="preserve" id="commentIcon">
    <!-- Generated by PaintCode - http://www.paintcodeapp.com -->
    <path id="commentIcon-oval" stroke="none" fill="rgb(77, 203, 68)" d="M 48,27 C 48,35.28 39.27,42 28.5,42 24.9,42 21.52,41.25 18.63,39.94 17.24,39.31 7.85,42.15 9,41 10,40 12.95,36.12 12.19,35.22 10.17,32.86 9,30.04 9,27 9,18.72 17.73,12 28.5,12 39.27,12 48,18.72 48,27 Z M 48,27" />
    <path id="commentIcon-bezier" stroke="none" fill="rgb(77, 203, 68)" d="M 63,39 C 63,42.04 61.83,44.86 59.81,47.22 59.05,48.12 62,52 63,53 64.15,54.15 54.76,51.31 53.37,51.94 50.48,53.25 47.1,54 43.5,54 35.43,54 28.5,50.22 25.54,44.84 26.51,44.95 27.5,45 28.51,45 40.93,45 51,36.94 51,27 51,26.36 50.96,25.73 50.88,25.11 57.99,27.35 63,32.72 63,39 Z M 63,39" />
</svg>
